X: 490
T: Paddy's Trip to Scotland
C: trad.
B: Jerry Holland Colln., attrib to Micky Doherty of Donegal
Z: arr. T. Traub 10-14-2014
R: reel
M: 4/4
L: 1/8
K: D
|: Ac |\
"D"dA A/A/A BAGF | "G"G2 (3Bcd "A"cABc |\
"D"dfed "A"cABc | "G"dfed "A"cABc |\
"D"dA A/A/A BAGF |
"G"G2 (3Bcd "A"cABc |\
"D"dfed "A"cABc | "A"dfec "D"d2 :: FG |\
"D"Adfd Adfd | "D"Adfd dcB^G |
"A"Acec Acec | "A"Acec dcB^G |\
"D"Adfd Adfd | "D"Adfd dcB^g | "A"aA A/A/A dcBA | "A"(3Bcd ec "D"d2 :|

%%sep 1 1 500

